TGraph/logxy.svg

<svg xmlns="http://www.w3.org/2000/svg" viewBox="0 0 1200 800" preserveAspectRatio="none" width="1200" height="800">
 <path d="M0,0H1200V800H0Z" style="fill: white;"></path>
 <g>
  <g transform="translate(120,80)">
   <path d="M0,0H960V640H0Z" style="fill: white; stroke: black; stroke-width: 1;"></path>
   <svg x="0" y="0" overflow="hidden" width="960" height="640" viewBox="0 0 960 640">
    <g>
     <path d="M-5,490l331,-115l145,-80l84,-60l60,-47l47,-38l38,-32l32,-25l28,-21l24,-16l22,-13l20,-10l18,-7l17,-3l15,-1l15,3l13,5l13,8l12,12l11,15" style="stroke: red; stroke-width: 4; fill: none;"></path>
     <path d="M-11,484v12h12v-12zM320,369v12h12v-12zM465,289v12h12v-12zM549,229v12h12v-12zM609,182v12h12v-12zM656,144v12h12v-12zM694,112v12h12v-12zM726,87v12h12v-12zM754,66v12h12v-12zM778,50v12h12v-12zM800,37v12h12v-12zM820,27v12h12v-12zM838,20v12h12v-12zM855,17v12h12v-12zM870,16v12h12v-12zM885,19v12h12v-12zM898,24v12h12v-12zM911,32v12h12v-12zM923,44v12h12v-12zM934,59v12h12v-12z" style="stroke: blue; fill: blue;"></path>
    </g>
   </svg>
   <g>
    <g transform="translate(0,640)">
     <path d="M0,0h960M75,-12v12m60,-12v12m47,-12v12m38,-12v12m32,-12v12m28,-12v12m24,-12v12m22,-24v24m145,-12v12m84,-12v12m60,-12v12m47,-12v12m38,-12v12m32,-12v12m28,-12v12m24,-12v12m22,-24v24m145,-12v12" style="stroke: black; stroke-width: 1;"></path>
     <g font-family="Arial" font-size="28" space="preserve">
      <g transform="translate(304,36)">
       <text fill="black" font-size="28">
        10
       </text>
       <text fill="black" font-size="17" transform="translate(30,-14)">
        -1
       </text>
      </g>
      <g transform="translate(786,36)">
       <text fill="black" font-size="28">
        10
       </text>
       <text fill="black" font-size="17" transform="translate(30,-14)">
        0
       </text>
      </g>
     </g>
    </g>
    <g>
     <path d="M0,0v640M18,489h-18m18,-118h-18m18,-83h-18m18,-65h-18m18,-53h-18m18,-44h-18m18,-39h-18m18,-34h-18m36,-31h-36" style="stroke: black; stroke-width: 1;"></path>
     <g font-family="Arial" font-size="28" space="preserve">
      <text fill="black" text-anchor="end" dy=".4em" transform="translate(-4,22)">
       10
      </text>
     </g>
    </g>
   </g>
  </g>
  <g transform="translate(120,4)" font-family="Arial" font-size="40" space="preserve">
   <text fill="black" text-anchor="middle" dy=".8em" transform="translate(480)">
    Option ACP example
   </text>
  </g>
 </g>
</svg>

<svg xmlns="http://www.w3.org/2000/svg" viewBox="0 0 1200 800" preserveAspectRatio="none" width="1200" height="800">
 <path d="M0,0H1200V800H0Z" style="fill: white;"></path>
 <g>
  <g transform="translate(120,80)">
   <path d="M0,0H960V640H0Z" style="fill: white; stroke: black; stroke-width: 1;"></path>
   <svg x="0" y="0" overflow="hidden" width="960" height="640" viewBox="0 0 960 640">
    <g>
     <path d="M-5,490l331,-115l145,-80l84,-60l60,-47l47,-38l38,-32l32,-25l28,-21l24,-16l22,-13l20,-10l18,-7l17,-3l15,-1l15,3l13,5l13,8l12,12l11,15" style="stroke: red; stroke-width: 4; fill: none;"></path>
     <path d="M-11,484v12h12v-12zM320,369v12h12v-12zM465,289v12h12v-12zM549,229v12h12v-12zM609,182v12h12v-12zM656,144v12h12v-12zM694,112v12h12v-12zM726,87v12h12v-12zM754,66v12h12v-12zM778,50v12h12v-12zM800,37v12h12v-12zM820,27v12h12v-12zM838,20v12h12v-12zM855,17v12h12v-12zM870,16v12h12v-12zM885,19v12h12v-12zM898,24v12h12v-12zM911,32v12h12v-12zM923,44v12h12v-12zM934,59v12h12v-12z" style="stroke: blue; fill: blue;"></path>
    </g>
   </svg>
   <g>
    <g transform="translate(0,640)">
     <path d="M0,0h960M75,-12V0M135,-12V0M182,-12V0M220,-12V0M252,-12V0M280,-12V0M304,-12V0M326,-24V0M471,-12V0M555,-12V0M615,-12V0M662,-12V0M700,-12V0M732,-12V0M760,-12V0M784,-12V0M806,-24V0M951,-12V0" style="stroke: black; stroke-width: 1;"></path>
     <g font-family="Arial" font-size="28" space="preserve">
      <g transform="translate(304,36)">
       <text fill="black" font-size="28">
        10
       </text>
       <text fill="black" font-size="17" transform="translate(30,-14)">
        -1
       </text>
      </g>
      <g transform="translate(786,36)">
       <text fill="black" font-size="28">
        10
       </text>
       <text fill="black" font-size="17" transform="translate(30,-14)">
        0
       </text>
      </g>
     </g>
    </g>
    <g>
     <path d="M0,0v640M18,489H0M18,371H0M18,288H0M18,223H0M18,170H0M18,126H0M18,87H0M18,53H0M36,22H0" style="stroke: black; stroke-width: 1;"></path>
     <g font-family="Arial" font-size="28" space="preserve">
      <text fill="black" text-anchor="end" dy=".4em" transform="translate(-4,22)">
       10
      </text>
     </g>
    </g>
   </g>
  </g>
  <g transform="translate(120,4)" font-family="Arial" font-size="40" space="preserve">
   <text fill="black" text-anchor="middle" dy=".8em" transform="translate(480)">
    Option ACP example
   </text>
  </g>
 </g>
</svg>
